docs/local/img/sprites/RocketLaunch.svg

<svg width="32" height="33" viewBox="0 0 32 33" fill="none" xmlns="http://www.w3.org/2000/svg">
<path d="M11.7625 23.5751C10.3375 27.8126 4.6875 27.8125 4.6875 27.8125C4.6875 27.8125 4.6875 22.1625 8.925 20.7375" stroke="#53E962" stroke-width="2" stroke-linecap="round" stroke-linejoin="round"/>
<path d="M24.4875 13.6751L16 22.1626L10.3375 16.5001L18.825 8.0126C22.0375 4.8001 25.25 4.8376 26.625 5.0376C26.8372 5.0659 27.0342 5.16325 27.1855 5.3146C27.3369 5.46596 27.4342 5.66292 27.4625 5.8751C27.6625 7.2501 27.7 10.4626 24.4875 13.6751Z" stroke="#53E962" stroke-width="2" stroke-linecap="round" stroke-linejoin="round"/>
<path d="M23.075 15.0874V23.1624C23.0712 23.4262 22.9634 23.6778 22.775 23.8624L18.7375 27.9124C18.6094 28.0403 18.449 28.1311 18.2733 28.175C18.0977 28.2189 17.9134 28.2143 17.7402 28.1617C17.567 28.1091 17.4113 28.0105 17.2897 27.8763C17.1682 27.7421 17.0853 27.5775 17.05 27.3999L16 22.1624" stroke="#53E962" stroke-width="2" stroke-linecap="round" stroke-linejoin="round"/>
<path d="M17.4125 9.42505H9.33753C9.07376 9.42881 8.82216 9.53663 8.63753 9.72505L4.58753 13.7625C4.45958 13.8906 4.36881 14.0511 4.3249 14.2267C4.28099 14.4023 4.28559 14.5866 4.3382 14.7598C4.39081 14.9331 4.48946 15.0888 4.62363 15.2103C4.75781 15.3319 4.92246 15.4147 5.10003 15.45L10.3375 16.5" stroke="#53E962" stroke-width="2" stroke-linecap="round" stroke-linejoin="round"/>
</svg>

<svg width="32" height="33" viewBox="0 0 32 33" fill="none" xmlns="http://www.w3.org/2000/svg"><path d="M11.762 23.575c-1.425 4.238-7.075 4.238-7.075 4.238s0-5.65 4.238-7.075m15.563-7.063L16 22.163 10.338 16.5l8.487-8.487c3.213-3.213 6.425-3.175 7.8-2.975a.975.975 0 01.837.837c.2 1.375.238 4.588-2.974 7.8z" stroke="#53E962" stroke-width="2" stroke-linecap="round" stroke-linejoin="round"/><path d="M23.075 15.087v8.075a1 1 0 01-.3.7l-4.037 4.05a1 1 0 01-1.688-.512L16 22.162m1.413-12.737H9.338a1 1 0 00-.7.3l-4.05 4.037A1 1 0 005.1 15.45l5.238 1.05" stroke="#53E962" stroke-width="2" stroke-linecap="round" stroke-linejoin="round"/></svg>
